packages/mercury/src/icons/svg-source/bpm/message-4.svg

<svg xmlns="http://www.w3.org/2000/svg" width="32" height="32" fill="none" viewBox="0 0 32 32">
  <g clip-path="url(#a)">
    <path fill="#C0CCD9" d="M15.77 32.28a16.5 16.5 0 1 1 16.5-16.5 16.52 16.52 0 0 1-16.5 16.5Zm0-30a13.5 13.5 0 1 0 13.5 13.5 13.51 13.51 0 0 0-13.5-13.5Zm-7.1 8.14a.54.54 0 0 0-.2-.1 1 1 0 0 1 .53-.17h14a1 1 0 0 1 .63.24h-.06l-7 6a.58.58 0 0 1-.85 0l-7.05-5.97Zm7.45 7.21a1.58 1.58 0 0 1-1.12-.47l-7-6v9a1 1 0 0 0 1 1h14a1 1 0 0 0 1-1v-8.79l-6.79 5.82a1.56 1.56 0 0 1-1.09.44Z"/>
  </g>
</svg>

<svg xmlns="http://www.w3.org/2000/svg" viewBox="0 0 32 32"><defs><style>.icons09{fill:#81888e;}</style></defs><g id="e227004f-bfc0-4f4f-b839-cf1b6480bc3d" data-name="message-4"><path id="ab525d8b-c53a-4d6f-a241-7d4a791d8732" data-name="icons09" class="icons09" d="M15.77,32.28a16.5,16.5,0,1,1,16.5-16.5A16.52,16.52,0,0,1,15.77,32.28Zm0-30a13.5,13.5,0,1,0,13.5,13.5A13.51,13.51,0,0,0,15.77,2.28Zm-7.1,8.14a.54.54,0,0,0-.2-.1A1,1,0,0,1,9,10.15H23a1,1,0,0,1,.63.24l-.06,0-7,6a.58.58,0,0,1-.85,0Zm7.45,7.21A1.58,1.58,0,0,1,15,17.16l-7-6,0,0v9a1,1,0,0,0,1,1H23a1,1,0,0,0,1-1V11.37l-6.79,5.82A1.56,1.56,0,0,1,16.12,17.63ZM8,11.16H8"/></g></svg>
